images/logoc.svg

<svg width="106" height="60" fill="none" xmlns="http://www.w3.org/2000/svg"><path d="M36.4063 49.1014a.1357.1357 0 0 1 .0461.0092.1222.1222 0 0 1 .0384.024l.2181.2085c-.1693.1687-.3785.3037-.6134.3957a2.3909 2.3909 0 0 1-.8698.1421 2.3144 2.3144 0 0 1-.8179-.1327c-.2339-.085-.444-.2126-.6162-.3743-.1757-.1677-.3111-.3643-.3981-.5781a1.9263 1.9263 0 0 1-.139-.7416 1.7992 1.7992 0 0 1 .1499-.7439c.0953-.2152.2389-.4117.4226-.5781.1862-.1631.4089-.2914.6544-.3767a2.5648 2.5648 0 0 1 .8425-.1327 2.2698 2.2698 0 0 1 .7825.1208c.2159.0814.4142.1944.5862.3341l-.1827.2227a.1773.1773 0 0 1-.0464.0403.1251.1251 0 0 1-.0736.0166.1769.1769 0 0 1-.079-.0237l-.0982-.0593-.1363-.0758a1.5546 1.5546 0 0 0-.1827-.0734 1.8897 1.8897 0 0 0-.2481-.0592 1.8924 1.8924 0 0 0-.3245-.0237 1.759 1.759 0 0 0-.6052.0995c-.1792.0629-.3409.1582-.4744.2795-.136.1291-.2408.2806-.3081.4455a1.4974 1.4974 0 0 0-.1118.5875 1.5279 1.5279 0 0 0 .1118.5971c.0665.1634.1693.314.3026.443.1249.1203.2797.2143.4526.2749.178.0641.369.0963.5617.0947a2.3686 2.3686 0 0 0 .3326-.0189 1.3165 1.3165 0 0 0 .5044-.1588 1.6474 1.6474 0 0 0 .2154-.1469.1712.1712 0 0 1 .1036-.0379ZM42.7044 48.0538a1.8076 1.8076 0 0 1-.1473.7368c-.0888.2137-.2288.4087-.4106.572-.1819.1634-.4015.2914-.6445.3756a2.6553 2.6553 0 0 1-1.6577 0c-.2413-.0855-.4595-.2138-.6407-.3767-.1817-.1663-.3227-.3629-.4144-.578-.1964-.4772-.1964-.9988 0-1.4759.093-.2153.2338-.4125.4144-.5805.1827-.1577.4008-.2811.6407-.3624a2.6105 2.6105 0 0 1 1.6577 0c.2422.0855.4613.2137.6435.3767.1795.1646.3194.3587.4116.5709.1011.2372.151.4886.1473.7415Zm-.5726 0a1.564 1.564 0 0 0-.1036-.5923c-.0611-.1635-.1604-.3143-.2917-.443-.1278-.1217-.2852-.2172-.4608-.2795a1.9176 1.9176 0 0 0-1.2051 0c-.1755.0623-.3329.1578-.4607.2795-.1332.1279-.2335.2789-.2945.443a1.7382 1.7382 0 0 0 0 1.1846c.0616.1639.1619.3148.2945.443.128.121.2854.2157.4607.2772a1.9653 1.9653 0 0 0 1.2051 0c.1754-.0615.3328-.1562.4608-.2772.1307-.129.23-.2797.2917-.443a1.552 1.552 0 0 0 .1036-.5923ZM47.0013 48.6747l.0573.1327c.0218-.0474.0409-.0901.0627-.1327a1.2118 1.2118 0 0 1 .0709-.1303l1.3932-2.2006c.0273-.0379.0518-.0615.0791-.0687a.373.373 0 0 1 .1145-.0118h.4117v3.5792h-.4881v-2.743a.974.974 0 0 1 0-.1232l-1.4014 2.2314a.2027.2027 0 0 1-.082.0814.2458.2458 0 0 1-.1197.0299h-.0791a.2428.2428 0 0 1-.12-.0295.2013.2013 0 0 1-.0818-.0818l-1.4423-2.2456v2.8733h-.4716v-3.5721h.4117a.3736.3736 0 0 1 .1145.0118.154.154 0 0 1 .0763.0687l1.4232 2.203a.7529.7529 0 0 1 .0709.1279ZM52.2443 48.4969v1.3407h-.5453v-3.5744h1.216a2.603 2.603 0 0 1 .6789.0781c.1765.0435.3402.1194.4799.2227.1211.0968.2145.2168.2726.3506.0644.1458.0959.301.0927.4571a1.0256 1.0256 0 0 1-.1008.4572c-.0656.1371-.1663.2595-.2945.3577a1.3913 1.3913 0 0 1-.4826.2368 2.2995 2.2995 0 0 1-.6571.0829l-.6598-.0094Zm0-.3838h.6598c.1434.0017.286-.0167.4226-.0544a.9243.9243 0 0 0 .3054-.154.6345.6345 0 0 0 .1854-.2369.6856.6856 0 0 0 .0654-.3008.6036.6036 0 0 0-.0547-.2912.688.688 0 0 0-.1906-.2441c-.2083-.1413-.47-.2098-.7335-.1919h-.6598v1.4733ZM59.5731 49.8424h-.4308a.2051.2051 0 0 1-.12-.0332.2238.2238 0 0 1-.0709-.0829l-.3708-.8647h-1.8621l-.3845.8647a.1964.1964 0 0 1-.0681.0806.2049.2049 0 0 1-.1227.0355h-.4308l1.6359-3.5796h.5671l1.6577 3.5796Zm-2.6992-1.329h1.5377l-.6489-1.457a2.3666 2.3666 0 0 1-.1227-.3364l-.0627.1872a1.6904 1.6904 0 0 1-.06.1516l-.6434 1.4546ZM61.9288 46.2795a.2318.2318 0 0 1 .0818.0639l2.3856 2.6983V46.2629h.4881v3.5795h-.2727a.2653.2653 0 0 1-.1118-.0213.2985.2985 0 0 1-.0872-.0663l-2.3829-2.6959a.974.974 0 0 1 0 .1232V49.8424h-.4881v-3.5795h.289a.2586.2586 0 0 1 .0982.0166ZM68.9031 48.4188v1.4214h-.5453v-1.4214L66.85 46.2631h.4881a.1963.1963 0 0 1 .1172.0307.312.312 0 0 1 .0736.0806l.9434 1.3906c.0382.0592.0709.1137.0982.1658.0272.0521.049.1019.0681.1516l.0709-.154a1.2363 1.2363 0 0 1 .0927-.1634l.9297-1.4001a.3787.3787 0 0 1 .0709-.0758.1827.1827 0 0 1 .1173-.0355h.4935l-1.5105 2.1652ZM46.7314 40.2561c.2372.0261.4771.0474.7198.0664 3.6788-1.4299 6.791-3.7702 8.9474-6.7283 2.1565-2.9582 3.2616-6.403 3.1772-9.9038l-4.0542-3.5226c.8243 3.7273.4387 7.5804-1.1137 11.1281-1.5524 3.5478-4.2104 6.6502-7.6765 8.9602Z" fill="#AFB1B8"/><path d="m45.2837 40.0923.1091.0189c3.7038-2.3018 6.5277-5.5161 8.1065-9.2273 1.5787-3.7112 1.8396-7.7486.749-11.59l-5.7746-5.0172c2.3357 4.1241 3.2758 8.7395 2.7111 13.3095-.5647 4.57-2.6111 8.9068-5.9011 12.5061ZM64.8679 27.8265c-.9811 3.8466-3.3638 7.3158-6.7944 9.8924-1.0019.7566-2.0826 1.4307-3.2281 2.0135 2.7935-.7134 5.3611-1.9746 7.5048-3.6864 2.1438-1.7119 3.8064-3.8286 4.8598-6.187l-2.3421-2.0325Z" fill="#AFB1B8"/><path d="m63.9491 27.2601-3.3345-2.8972c-.0637 3.3031-1.1445 6.5311-3.13 9.3485-1.9855 2.8173-4.8032 5.1213-8.1603 6.6723h.0163a21.7448 21.7448 0 0 0 2.2385-.1161c3.1374-1.1126 5.9089-2.8827 8.0674-5.1524 2.1584-2.2697 3.6366-4.9683 4.3026-7.8551ZM45.7663 12.1609l-3.978-3.461c-3.5561 1.194-6.6145 3.2929-8.7749 6.0221-2.1605 2.7292-3.3222 5.9615-3.3333 9.2739.0133 3.6601 1.4312 7.2118 4.0292 10.0929 2.598 2.8811 6.2278 4.9272 10.3148 5.8142 3.6484-3.862 5.7845-8.6343 6.0978-13.6232.3133-4.989-1.2125-9.9349-4.3556-14.1189ZM73.14 26.7273c-.0143-4.3425-2.0062-8.5035-5.5403-11.5741-3.5342-3.0706-8.3234-4.8012-13.3214-4.8137-2.3095-.0021-4.5994.3682-6.7535 1.092l24.3556 21.1611c.834-1.8705 1.2611-3.8593 1.2596-5.8653Z" fill="#AFB1B8"/></svg>

<svg width="106" height="60" viewBox="0 0 106 60" fill="none" xmlns="http://www.w3.org/2000/svg">
<path d="M36.4063 49.1014C36.4222 49.1018 36.4379 49.1049 36.4524 49.1106C36.4669 49.1163 36.4799 49.1245 36.4908 49.1346L36.7089 49.3431C36.5396 49.5118 36.3304 49.6468 36.0955 49.7388C35.8204 49.8391 35.5239 49.8875 35.2257 49.8809C34.9455 49.8859 34.6671 49.8408 34.4078 49.7482C34.1739 49.6632 33.9638 49.5356 33.7916 49.3739C33.6159 49.2062 33.4805 49.0096 33.3935 48.7958C33.2982 48.5574 33.2512 48.3065 33.2545 48.0542C33.2506 47.8003 33.3015 47.548 33.4044 47.3103C33.4997 47.0951 33.6433 46.8986 33.827 46.7322C34.0132 46.5691 34.2359 46.4408 34.4814 46.3555C34.7499 46.265 35.0359 46.22 35.3239 46.2228C35.5914 46.2172 35.8575 46.2582 36.1064 46.3436C36.3223 46.425 36.5206 46.538 36.6926 46.6777L36.5099 46.9004C36.4973 46.9161 36.4816 46.9297 36.4635 46.9407C36.442 46.9535 36.4159 46.9594 36.3899 46.9573C36.3616 46.9556 36.3343 46.9474 36.3109 46.9336L36.2127 46.8743L36.0764 46.7985C36.0175 46.7704 35.9565 46.7458 35.8937 46.7251C35.8128 46.6999 35.7299 46.6801 35.6456 46.6659C35.5386 46.6487 35.4299 46.6408 35.3211 46.6422C35.1138 46.6399 34.908 46.6737 34.7159 46.7417C34.5367 46.8046 34.375 46.8999 34.2415 47.0212C34.1055 47.1503 34.0007 47.3018 33.9334 47.4667C33.8566 47.6553 33.8187 47.8542 33.8216 48.0542C33.8183 48.2574 33.8561 48.4595 33.9334 48.6513C33.9999 48.8147 34.1027 48.9653 34.236 49.0943C34.3609 49.2146 34.5157 49.3086 34.6886 49.3692C34.8666 49.4333 35.0576 49.4655 35.2503 49.4639C35.3615 49.4654 35.4728 49.4591 35.5829 49.445C35.7627 49.4259 35.9351 49.3716 36.0873 49.2862C36.1636 49.2425 36.2356 49.1934 36.3027 49.1393C36.3307 49.1161 36.3676 49.1026 36.4063 49.1014Z" fill="#AFB1B8"/>
<path d="M42.7044 48.0538C42.7078 48.3052 42.6579 48.5549 42.5571 48.7906C42.4683 49.0043 42.3283 49.1993 42.1465 49.3626C41.9646 49.526 41.745 49.654 41.502 49.7382C40.9682 49.9151 40.3781 49.9151 39.8443 49.7382C39.603 49.6527 39.3848 49.5244 39.2036 49.3615C39.0219 49.1952 38.8809 48.9986 38.7892 48.7835C38.5928 48.3063 38.5928 47.7847 38.7892 47.3076C38.8822 47.0923 39.023 46.8951 39.2036 46.7271C39.3863 46.5694 39.6044 46.446 39.8443 46.3647C40.3775 46.1846 40.9689 46.1846 41.502 46.3647C41.7442 46.4502 41.9633 46.5784 42.1455 46.7414C42.325 46.906 42.4649 47.1001 42.5571 47.3123C42.6582 47.5495 42.7081 47.8009 42.7044 48.0538ZM42.1318 48.0538C42.1361 47.8527 42.1011 47.6525 42.0282 47.4615C41.9671 47.298 41.8678 47.1472 41.7365 47.0185C41.6087 46.8968 41.4513 46.8013 41.2757 46.739C40.8879 46.6095 40.4585 46.6095 40.0706 46.739C39.8951 46.8013 39.7377 46.8968 39.6099 47.0185C39.4767 47.1464 39.3764 47.2974 39.3154 47.4615C39.1767 47.8472 39.1767 48.2604 39.3154 48.6461C39.377 48.81 39.4773 48.9609 39.6099 49.0891C39.7379 49.2101 39.8953 49.3048 40.0706 49.3663C40.4592 49.4925 40.8872 49.4925 41.2757 49.3663C41.4511 49.3048 41.6085 49.2101 41.7365 49.0891C41.8672 48.9601 41.9665 48.8094 42.0282 48.6461C42.1014 48.4552 42.1364 48.2549 42.1318 48.0538Z" fill="#AFB1B8"/>
<path d="M47.0013 48.6747L47.0586 48.8074C47.0804 48.76 47.0995 48.7173 47.1213 48.6747C47.1421 48.6302 47.1657 48.5867 47.1922 48.5444L48.5854 46.3438C48.6127 46.3059 48.6372 46.2823 48.6645 46.2751C48.7015 46.2653 48.7403 46.2613 48.779 46.2633H49.1907V49.8425H48.7026V47.2108C48.7026 47.1776 48.7026 47.1397 48.7026 47.0995C48.7 47.0585 48.7 47.0173 48.7026 46.9763L47.3012 49.2077C47.2834 49.2411 47.255 49.2694 47.2192 49.2891C47.1834 49.3089 47.1418 49.3192 47.0995 49.319H47.0204C46.9779 49.3195 46.9362 49.3093 46.9004 49.2895C46.8646 49.2697 46.8362 49.2413 46.8186 49.2077L45.3763 46.9621C45.3763 47.0047 45.3763 47.0474 45.3763 47.09C45.3763 47.1326 45.3763 47.1705 45.3763 47.2037V49.8354H44.9047V46.2633H45.3164C45.355 46.2613 45.3938 46.2653 45.4309 46.2751C45.4647 46.2897 45.4916 46.314 45.5072 46.3438L46.9304 48.5468C46.9584 48.5875 46.9821 48.6303 47.0013 48.6747Z" fill="#AFB1B8"/>
<path d="M52.2443 48.4969V49.8376H51.699V46.2632H52.915C53.1446 46.2594 53.3735 46.2857 53.5939 46.3413C53.7704 46.3848 53.9341 46.4607 54.0738 46.564C54.1949 46.6608 54.2883 46.7808 54.3464 46.9146C54.4108 47.0604 54.4423 47.2156 54.4391 47.3717C54.4415 47.5285 54.4072 47.684 54.3383 47.8289C54.2727 47.966 54.172 48.0884 54.0438 48.1866C53.9039 48.2941 53.7395 48.3749 53.5612 48.4234C53.3489 48.4824 53.1269 48.5104 52.9041 48.5063L52.2443 48.4969ZM52.2443 48.1131H52.9041C53.0475 48.1148 53.1901 48.0964 53.3267 48.0587C53.4394 48.0257 53.5433 47.9733 53.6321 47.9047C53.714 47.8391 53.7775 47.7581 53.8175 47.6678C53.8621 47.5723 53.8844 47.4701 53.8829 47.367C53.8893 47.2676 53.8706 47.1683 53.8282 47.0758C53.7859 46.9834 53.7208 46.9 53.6376 46.8317C53.4293 46.6904 53.1676 46.6219 52.9041 46.6398H52.2443V48.1131Z" fill="#AFB1B8"/>
<path d="M59.5731 49.8424H59.1423C59.0991 49.8438 59.0566 49.8321 59.0223 49.8092C58.9914 49.7869 58.9671 49.7585 58.9514 49.7263L58.5806 48.8616H56.7185L56.334 49.7263C56.3199 49.7579 56.2964 49.7857 56.2659 49.8069C56.2312 49.8311 56.1877 49.8437 56.1432 49.8424H55.7124L57.3483 46.2628H57.9154L59.5731 49.8424ZM56.8739 48.5134H58.4116L57.7627 47.0564C57.7131 46.9468 57.6721 46.8344 57.64 46.72L57.5773 46.9072C57.5582 46.964 57.5364 47.0162 57.5173 47.0588L56.8739 48.5134Z" fill="#AFB1B8"/>
<path d="M61.9288 46.2795C61.9614 46.295 61.9894 46.3169 62.0106 46.3434L64.3962 49.0417C64.3962 48.9991 64.3962 48.9564 64.3962 48.9161C64.3962 48.8759 64.3962 48.8356 64.3962 48.7977V46.2629H64.8843V49.8424H64.6116C64.5729 49.8434 64.5345 49.8361 64.4998 49.8211C64.4662 49.804 64.4365 49.7815 64.4126 49.7548L62.0297 47.0589C62.0323 47.0999 62.0323 47.141 62.0297 47.1821C62.0297 47.2223 62.0297 47.2579 62.0297 47.291V49.8424H61.5416V46.2629H61.8306C61.8644 46.2621 61.8979 46.2677 61.9288 46.2795Z" fill="#AFB1B8"/>
<path d="M68.9031 48.4188V49.8402H68.3578V48.4188L66.85 46.2631H67.3381C67.3801 46.2609 67.4217 46.2718 67.4553 46.2938C67.485 46.3168 67.5099 46.3441 67.5289 46.3744L68.4723 47.765C68.5105 47.8242 68.5432 47.8787 68.5705 47.9308C68.5977 47.9829 68.6195 48.0327 68.6386 48.0824L68.7095 47.9284C68.736 47.8721 68.7669 47.8175 68.8022 47.765L69.7319 46.3649C69.7515 46.337 69.7753 46.3115 69.8028 46.2891C69.8352 46.2646 69.8772 46.2518 69.9201 46.2536H70.4136L68.9031 48.4188Z" fill="#AFB1B8"/>
<path d="M46.7314 40.2561C46.9686 40.2822 47.2085 40.3035 47.4512 40.3225C51.13 38.8926 54.2422 36.5523 56.3986 33.5942C58.5551 30.636 59.6602 27.1912 59.5758 23.6904L55.5216 20.1678C56.3459 23.8951 55.9603 27.7482 54.4079 31.2959C52.8555 34.8437 50.1975 37.9461 46.7314 40.2561Z" fill="#AFB1B8"/>
<path d="M45.2837 40.0923L45.3928 40.1112C49.0966 37.8094 51.9205 34.5951 53.4993 30.8839C55.078 27.1727 55.3389 23.1353 54.2483 19.2939L48.4737 14.2767C50.8094 18.4008 51.7495 23.0162 51.1848 27.5862C50.6201 32.1562 48.5737 36.493 45.2837 40.0923Z" fill="#AFB1B8"/>
<path d="M64.8679 27.8265C63.8868 31.6731 61.5041 35.1423 58.0735 37.7189C57.0716 38.4755 55.9909 39.1496 54.8454 39.7324C57.6389 39.019 60.2065 37.7578 62.3502 36.046C64.494 34.3341 66.1566 32.2174 67.21 29.859L64.8679 27.8265Z" fill="#AFB1B8"/>
<path d="M63.9491 27.2601L60.6146 24.3629C60.5509 27.666 59.4701 30.894 57.4846 33.7114C55.4991 36.5287 52.6814 38.8327 49.3243 40.3837H49.3406C50.0888 40.3835 50.8362 40.3447 51.5791 40.2676C54.7165 39.155 57.488 37.3849 59.6465 35.1152C61.8049 32.8455 63.2831 30.1469 63.9491 27.2601Z" fill="#AFB1B8"/>
<path d="M45.7663 12.1609L41.7883 8.69995C38.2322 9.89391 35.1738 11.9928 33.0134 14.722C30.8529 17.4512 29.6912 20.6835 29.6801 23.9959V23.9959C29.6934 27.656 31.1113 31.2077 33.7093 34.0888C36.3073 36.9699 39.9371 39.016 44.0241 39.903C47.6725 36.041 49.8086 31.2687 50.1219 26.2798C50.4352 21.2908 48.9094 16.3449 45.7663 12.1609Z" fill="#AFB1B8"/>
<path d="M73.14 26.7273C73.1257 22.3848 71.1338 18.2238 67.5997 15.1532C64.0655 12.0826 59.2763 10.352 54.2783 10.3395C51.9688 10.3374 49.6789 10.7077 47.5248 11.4315L71.8804 32.5926C72.7144 30.7221 73.1415 28.7333 73.14 26.7273Z" fill="#AFB1B8"/>
</svg>
